X:105 
T:Lancers' Quadrille (polka)
F:file ID: cre.5/105lancers
N:No repeats in CRE.
L:1/16
M:2/4
Q:120
R:polka
K:G
B:CRE5.105 (Cuadraill na Lancers)
Bc|dede dcBA|G2G2 GFGA|B2B2 BcdB|A2A2 A2Bc|
dede dcBA|G2G2 GFGA|B2B2 AGAB|G2B2G2:|
|:EF|GFGA B2c2|AGFE D2D2|GFGA BcdB|AGFE D2e2|
dcBc d2g2|dcBc d2g2|a2ag fdef|1g2b2g2:|2 g2b2g4-|g4||

%%%

